X: 16
T:Miss Sheppard
M:4/4
L:1/8
Q:180
R:March
K:ADor
"Am"A,>B,C>D E2 D>C|"G"B,>GF>G  "Em"D>B, G,2|
"Am"A,>B,C>D E>GA>c|"G"B>AG>B "Am"B>A A2:|!
"Am"g>ae>d c>BA>F|"G"=G>ED>C "Em"B,>G, G,2|
"Am"g>ae>d c>BA>F|"G"=G>AB>d "Am"c>A A2|!
"Am"g>ae>d c>BA>F|"G"=G>ED>C "Em"B,>G, G,2|
"Am"A,>B,=C>D E>GA>c|"G"B>AG>B "Am"B>A A2||
